!!!OTL: Allein Gott in der Höh sei Ehr
!!!COL: Hymnal 1982
!!!COL:
**kern	**text	**text	**text
*clefG2	*	*	*
*k[f#]	*	*	*
*M3/4	*	*	*
*G:	*	*	*
=0	=0	=0	=0
4g	1.All	2.O	3.You
=1	=1	=1	=1
2b	Glo-	Lamb	on-
4cc	ry	of	ly
=2	=1	=1	=1
2dd	be	God,	are
4cc	to	Lord	the
=3	=1	=1	=1
2b	God	Je-	Ho-
4a	on	sus	ly
=4	=1	=1	=1
2b;	high,	Christ,	One,
4b	and	whom	who
=5	=1	=1	=1
2b	peace	God	came
4a	on	the	for
=6	=1	=1	=1
2cc	Earth	Fa-	our
4a	from	ther	sal-
=7	=1	=1	=1
2g	hea-	gave	va-
4f#	.	.	.
=8	=1	=1	=1
2g;	ven,	us	tion,
4g	and	who	and
=9	=1	=1	=1
2b	God's	for	on-
4cc	good	the	ly
=10	=1	=1	=1
2dd	will	world	you
4cc	un-	was	are
=11	=1	=1	=1
2b	fail-	sac-	God's
4a	ing-	ri-	true
=12	=1	=1	=1
2b;	ly	ficed	Son,
4b	be	up-	who
=13	=1	=1	=1
2b	to	on	was
4a	all	the	be-
=14	=1	=1	=1
2cc	peo-	cross	fore
4a	ple	to	cre-
=15	=1	=1	=1
2g	giv-	save	a-
4f#	.	.	.
=16	=1	=1	=1
2g;	en.	us;	tion.
4g	We	and,	You,
=17	=1	=1	=1
2g	bless,	as	on-
4a	we	you	ly,
=18	=1	=1	=1
2cc	wor-	sit	Christ,
4b	ship	at	as
=19	=1	=1	=1
2a	you,	God's	Lord
4g#	we	right	we
=20	=1	=1	=1
2a;	raise	hand	own
4a	for	and	and,
=21	=1	=1	=1
2b	your	we	with
4cc	great	for	the
=22	=1	=1	=1
2dd	glo-	judg-	Spi-
4cc	ry	ment	rit,
=23	=1	=1	=1
2b	thanks	there	you
4a	and	must	a-
=24	=1	=1	=1
2b;	praise,	stand,	lone
4g	O	have	share
=25	=1	=1	=1
2a	God,	mer-	in
4cc	Al-	cy,	the
=26	=1	=1	=1
2b	might-	Lord,	Fa-
4a	y	up-	ther's
=27	=1	=1	=1
2g	Fa-	on	glor-
4f#	.	.	.
=28	=1	=1	=1
2g;	ther.	us.	ry.
==	==	==	==
*-	*-	*-	*-